X:74
T:Beaujolais in Boston
M:2/4
L:1/8
Q:1/4=100
R:reel
K:EDor
||: E3G FEAF | GEED EDB,D | E3F GABd | bafd B2AF |
E3G FEAF | GEED EDB,D | G3d BAFA | GEFG E4 :||:
e3d B3A | G~E3 GABd | e3f gfgb | a~f3 abaf |
e3d B3A | G~E3 EDB,D | G3d BAFA | GEFG E4 :||
